svg/fluentui-system-icons/ic_fluent_calendar_edit_24_filled.svg

<svg width="24" height="24" viewBox="0 0 24 24" fill="none" xmlns="http://www.w3.org/2000/svg">
<path d="M11.5202 19.5754L11.1644 20.9984H6.24971C4.45495 20.9984 3 19.5435 3 17.7487V8.49952H20.9984V11.0115C20.0657 10.9311 19.1051 11.2478 18.3913 11.9616L12.4894 17.8635C12.0172 18.3357 11.6821 18.9274 11.5202 19.5754ZM20.9984 6.24971C20.9984 4.45495 19.5435 3 17.7487 3H6.24971C4.45495 3 3 4.45495 3 6.24971V6.99965H20.9984V6.24971ZM19.0984 12.6686L13.1965 18.5705C12.8524 18.9146 12.6083 19.3458 12.4903 19.8179L12.0327 21.6484C11.8336 22.4445 12.5547 23.1656 13.3508 22.9666L15.1813 22.5089C15.6534 22.3909 16.0846 22.1468 16.4287 21.8027L22.3306 15.9008C23.2231 15.0082 23.2231 13.5611 22.3306 12.6686C21.4381 11.7761 19.991 11.7761 19.0984 12.6686Z" fill="#212121"/>
</svg>

<svg xmlns="http://www.w3.org/2000/svg" width="24" height="24"><path d="m11.52 19.575-.356 1.423H6.25A3.25 3.25 0 0 1 3 17.748V8.5h17.998v2.511a3.279 3.279 0 0 0-2.607.95l-5.902 5.902a3.684 3.684 0 0 0-.969 1.712ZM20.998 6.25A3.25 3.25 0 0 0 17.748 3H6.25A3.25 3.25 0 0 0 3 6.25V7h17.998v-.75Zm-1.9 6.419-5.901 5.901a2.685 2.685 0 0 0-.707 1.248l-.457 1.83c-.2.797.522 1.518 1.318 1.319l1.83-.458a2.685 2.685 0 0 0 1.248-.706L22.33 15.9a2.286 2.286 0 0 0-3.233-3.232Z"/></svg>
